img/Logo_Outline_2.svg

<svg xmlns="http://www.w3.org/2000/svg" width="333" height="486" fill="none" xmlns:v="https://vecta.io/nano"><path fill-rule="evenodd" d="M280.5 1.597c-3.85.859-11.05 3.063-16 4.898l-36.363 13.164c-5.15 1.845-10.775 4.007-12.5 4.804S208 27.472 202.5 29.379l-37.811 13.665c-.996.577-6.171 2.575-11.5 4.441L117.66 60.407c-1.738.779-7.885 3.09-13.66 5.136L67.5 78.925c-2.2 1.016-5.575 2.297-7.5 2.849-4.926 1.41-21.628 7.641-27 10.072-10.934 4.949-21.22 15.103-26.096 25.76C2.021 128.279 1 135.115 1 157.128v20.005l2.673-.317c1.952-.231 2.937-1.125 3.654-3.316.54-1.65 3.101-6.15 5.692-10 9.017-13.4 26.533-27.082 50.231-39.236 1.8-.923 2.75-2.209 2.75-3.722 0-1.272.612-3.769 1.361-5.549l1.361-3.237.651 2.594c1.132 4.512 4.402 6.65 10.166 6.65 6.039 0 10.343-1.341 16.185-5.042C102.557 111.628 119 97.721 119 96.271c0-2.058-2.935-2.712-6.903-1.538-3.799 1.125-21.203 7.635-24.597 9.202-1.1.507-4.475 1.816-7.5 2.908l-7.5 2.731c-1.802.672-1.765.489.371-1.858 2.326-2.553 9.873-5.8 30.629-13.179 5.5-1.955 10.9-3.995 12-4.535s6.95-2.729 13-4.867l23.5-8.457 24-8.675 13.5-5.018c2.438-1.115 20.395-7.774 34-12.608l13-4.842c1.65-.708 7.275-2.705 12.5-4.439s10.331-3.62 11.347-4.193 2.043-.847 2.281-.608-2.315 2.406-5.674 4.819C242.278 51.656 236 57.06 236 59.152c0 1.868.433 2.05 3.75 1.578 2.063-.293 4.637-.888 5.72-1.323s-1.729 2.964-6.25 7.553c-5.592 5.676-8.22 9.093-8.22 10.691 0 1.292.419 2.349.932 2.349s-1.122 2.138-3.631 4.75-5.741 6.325-7.182 8.249-3.363 4.325-4.272 5.335-4.17 6.41-7.246 12.001c-6.434 11.694-7.339 16.665-3.035 16.665 1.411 0 3.517-.509 4.681-1.132s7.546-3.072 14.184-5.443l22.069-7.879c5.5-1.963 10.9-3.994 12-4.515s6.128-2.51 11.173-4.42c17.695-6.701 26.07-11.488 34.308-19.611 4.183-4.125 8.33-9.075 9.215-11l3.67-8c2.918-6.37 4.081-12.342 4.11-21.091.026-8.347-1.772-23.832-2.952-25.409-.412-.55-1.019-2.137-1.349-3.527-.8-3.364-7.111-10.63-10.962-12.622C302.3.069 289.058-.312 280.5 1.597zm24.347 7.407c3.898 2.824 5.729 5.781 9.215 14.888.828 2.163 1.323 8.504 1.368 17.5l.07 14.108-4.196 8.5c-2.655 5.379-6.161 10.52-9.547 14-5.136 5.279-13.646 12-15.193 12-.407 0-3.738 1.388-7.402 3.084S268.9 97.506 264.5 99.142l-12 4.517-14.5 5.356-17.471 6.344c-3.835 1.392-7.16 2.343-7.391 2.113s1.782-4.094 4.472-8.585c3.347-5.589 8.782-12.145 17.223-20.776 11.506-11.765 12.299-12.826 11.82-15.817-.471-2.941.143-3.845 7.417-10.924 8.052-7.835 9.716-11.271 6.367-13.146-1.271-.71-.773-1.423 2.656-3.799 6.273-4.348 9.103-6.192 12.157-7.92 1.512-.856 2.75-1.995 2.75-2.531s.498-.974 1.106-.974 2.882-1.407 5.053-3.126c2.755-2.182 3.856-3.768 3.644-5.25-.26-1.82-.948-2.113-4.803-2.048-2.475.042-6.525 1.005-9 2.139s-8.775 3.514-14 5.287-9.95 3.576-10.5 4.007-2.575 1.24-4.5 1.798-8 2.662-13.5 4.675l-18.44 6.656c-4.642 1.647-9.257 3.432-10.256 3.967s-7.326 2.923-14.06 5.307L164.5 65.004c-6.6 2.341-12.45 4.587-13 4.992s-5.5 2.207-11 4.004-10.45 3.587-11 3.977-5.95 2.388-12 4.439-12.415 4.37-14.143 5.153c-3.014 1.365-15.681 5.938-19.857 7.168-5.273 1.554-16.106 8.145-18.728 11.395-1.709 2.118-3.158 5.326-3.476 7.695-.535 3.991-.739 4.172-11.555 10.229-9.419 5.275-17.101 10.465-25.074 16.944-3.048 2.477-13.005 12.55-15.446 15.627L6.942 159.5 7.36 146c.59-19.04 4.1-28.182 14.845-38.666C30.87 98.879 35.946 96.533 75.5 82.697c6.6-2.308 12.15-4.535 12.333-4.947s.806-.75 1.384-.75c1.217 0 19.838-6.505 24.283-8.483 1.65-.734 6.6-2.534 11-4s9.35-3.251 11-3.965 7.05-2.756 12-4.536l11-4.044c1.1-.445 5.375-2.03 9.5-3.522l34-12.528 18.5-6.739 27.736-10.221c.955-.529 2.237-.962 2.849-.962s2.66-.734 4.551-1.632 9.384-3.573 16.651-5.946c10.704-3.496 14.656-4.325 20.813-4.369 6.903-.048 7.98.223 11.747 2.951zM94.5 109c-.34.55-1.085 1-1.655 1s-2.231.815-3.691 1.812c-3.495 2.386-9.991 4.261-10.713 3.092-.562-.91.75-1.554 10.059-4.94 5.917-2.151 6.824-2.297 6-.964zM55 155.488c-3.575.714-8.075 1.984-10 2.821s-5.975 2.517-9 3.735c-6.181 2.487-20.185 10.687-26.548 15.545-2.311 1.763-5.22 3.752-6.466 4.418l-2.264 1.212.652 34.14 1.234 103.823C3.53 431.533 4.353 462.499 6.525 468.5c2.682 7.413 6.335 12.376 10.905 14.817 8.047 4.297 23.501 2.452 40.07-4.785 1.65-.721 6.375-2.465 10.5-3.877s14.25-5.109 22.5-8.216l27-9.938 37-13.504c1.1-.528 5.825-2.326 10.5-3.997s9.4-3.447 10.5-3.947 6.725-2.526 12.5-4.501 11.4-4.024 12.5-4.552 6.725-2.576 12.5-4.552 11.4-4.005 12.5-4.511 6.5-2.516 12-4.468 11.35-4.141 13-4.864 7.275-2.799 12.5-4.614 9.928-3.68 10.45-4.145 1.585-.846 2.361-.846c1.929 0 19.328-7.004 21.189-8.529.825-.677 3.075-2.017 5-2.979 4.079-2.038 13.262-9.397 17.319-13.878 3.958-4.372 9.052-13.25 11.287-19.671 1.752-5.036 1.881-8.512 1.714-46.443-.205-46.675-2.045-107.582-3.288-108.851-.778-.794-14.315 2.809-16.532 4.4-.55.394-5.725 2.371-11.5 4.391s-11.4 4.091-12.5 4.601-6.05 2.313-11 4.006-10.35 3.691-12 4.44-7.621 2.949-13.269 4.89-10.77 3.838-11.381 4.216-6.565 2.612-13.231 4.966L192.5 246.454c-1.65.754-5.475 2.147-8.5 3.096s-8.762 3.056-12.75 4.681l-7.25 2.956v5.26c0 9.473 1.22 17.7 2.709 18.271 1.253.481 15.638-3.467 20.791-5.706 1.1-.478 5.879-1.854 10.62-3.058 10.334-2.623 13.192-1.83 16.38 4.546 1.868 3.736 2.018 6.306 2.271 39 .285 36.982-.408 46.756-4.004 56.428-2.447 6.582-8.88 15.292-15.513 21.003-5.742 4.944-19.347 11.737-32.254 16.103-5.225 1.767-10.85 3.784-12.5 4.48-6.453 2.725-19.575 7.362-21.151 7.475-.547.039-1.467-27.567-1.866-55.989l-3.446-133.5c-1.8-15.899-7.292-36.277-12.731-47.235C101.271 160.017 81.4 150.209 55 155.488zm27.5 6.934c10.809 4.545 20.849 14.644 25.426 25.578 1.267 3.025 2.736 6.037 3.264 6.694 1.907 2.367 5.85 19.175 8.224 35.048 2.193 14.667 2.677 24.184 3.069 60.258l1.381 77.5 1.082 52.75L125 428h3.019c1.66 0 6.048-1.096 9.75-2.435L156 419.027c6.325-2.257 12.85-4.708 14.5-5.447s4.8-1.909 7-2.599c13.745-4.314 27.21-13.856 34.43-24.398 9.583-13.992 10.019-16.871 10.103-66.722.064-37.722-.094-41.931-1.745-46.376-3.685-9.925-12.106-11.172-33.288-4.93-18.842 5.552-17 5.695-17-1.317v-5.996l14.25-5.203 22.25-8.189 40.5-14.897 28.5-10.471 23-8.488 16.452-5.931c4.649-1.685 8.751-3.063 9.117-3.063s.964 14.512 1.331 32.25l1.691 64.763c1.146 36.366.556 42.704-5.071 54.487-7.253 15.189-23.611 27.065-50.168 36.422l-21.352 7.517c-5.5 1.935-10.733 3.947-11.63 4.473s-6.971 2.834-13.5 5.132L204 417.687c-5.225 1.907-10.625 3.724-12 4.039s-2.725.903-3 1.307-5 2.326-10.5 4.27l-14 5.045-14 5.168-21 7.69-22 7.926-13 4.747c-5.217 2.225-7.465 3.086-13.5 5.169-3.575 1.235-7.85 2.813-9.5 3.508-5.125 2.159-28.74 10.487-34 11.991-9.534 2.725-15.909 1.32-20.895-4.605-3.283-3.901-4.427-6.62-5.658-13.442-.988-5.471-1.273-22.102-2.953-171.818l-1.13-100.818 2.318-2.216c7.352-7.026 32.23-20.12 44.818-23.588 8.973-2.473 22.156-2.305 28.5.362z" fill="#fffcf3"/></svg>

<svg width="333" height="486" viewBox="0 0 333 486" fill="none" xmlns="http://www.w3.org/2000/svg">
<path fill-rule="evenodd" clip-rule="evenodd" d="M280.5 1.59701C276.65 2.45601 269.45 4.66001 264.5 6.49501C255.821 9.71201 248.079 12.515 228.137 19.659C222.987 21.504 217.362 23.666 215.637 24.463C213.911 25.26 208 27.472 202.5 29.379C177.608 38.01 166.366 42.073 164.689 43.044C163.693 43.621 158.518 45.619 153.189 47.485C134.055 54.182 120.765 59.016 117.66 60.407C115.922 61.186 109.775 63.497 104 65.543C75.476 75.649 71.211 77.212 67.5 78.925C65.3 79.941 61.925 81.222 60 81.774C55.074 83.184 38.372 89.415 33 91.846C22.066 96.795 11.78 106.949 6.90398 117.606C2.02098 128.279 0.999985 135.115 0.999985 157.128V177.133L3.67299 176.816C5.62499 176.585 6.60998 175.691 7.32698 173.5C7.86698 171.85 10.428 167.35 13.019 163.5C22.036 150.1 39.552 136.418 63.25 124.264C65.05 123.341 66 122.055 66 120.542C66 119.27 66.612 116.773 67.361 114.993L68.722 111.756L69.373 114.35C70.505 118.862 73.775 121 79.539 121C85.578 121 89.882 119.659 95.724 115.958C102.557 111.628 119 97.721 119 96.271C119 94.213 116.065 93.559 112.097 94.733C108.298 95.858 90.894 102.368 87.5 103.935C86.4 104.442 83.025 105.751 80 106.843C76.975 107.934 73.6 109.164 72.5 109.574C70.698 110.246 70.735 110.063 72.871 107.716C75.197 105.163 82.744 101.916 103.5 94.537C109 92.582 114.4 90.542 115.5 90.002C116.6 89.463 122.45 87.273 128.5 85.135C134.55 82.998 145.125 79.192 152 76.678C158.875 74.164 169.675 70.26 176 68.003C182.325 65.746 188.4 63.488 189.5 62.985C191.938 61.87 209.895 55.211 223.5 50.377C229 48.422 234.85 46.244 236.5 45.535C238.15 44.827 243.775 42.83 249 41.096C254.225 39.363 259.331 37.476 260.347 36.903C261.363 36.33 262.39 36.056 262.628 36.295C262.866 36.533 260.313 38.701 256.954 41.114C242.278 51.656 236 57.06 236 59.152C236 61.02 236.433 61.202 239.75 60.73C241.813 60.437 244.387 59.842 245.47 59.407C246.554 58.972 243.741 62.371 239.22 66.96C233.628 72.636 231 76.053 231 77.651C231 78.943 231.419 80 231.932 80C232.444 80 230.81 82.138 228.301 84.75C225.792 87.362 222.56 91.075 221.119 92.999C219.679 94.924 217.756 97.324 216.847 98.334C215.938 99.343 212.677 104.744 209.601 110.335C203.167 122.029 202.262 127 206.566 127C207.977 127 210.083 126.491 211.247 125.868C212.41 125.245 218.793 122.796 225.431 120.425C232.069 118.054 242 114.508 247.5 112.546C253 110.583 258.4 108.552 259.5 108.031C260.6 107.51 265.628 105.521 270.673 103.611C288.368 96.91 296.743 92.123 304.981 84C309.164 79.875 313.311 74.925 314.196 73C315.081 71.075 316.733 67.475 317.866 65C320.784 58.63 321.947 52.658 321.976 43.909C322.002 35.562 320.204 20.077 319.024 18.5C318.612 17.95 318.005 16.363 317.675 14.973C316.875 11.609 310.564 4.34301 306.713 2.35101C302.3 0.0690099 289.058 -0.31199 280.5 1.59701ZM304.847 9.00401C308.745 11.828 310.576 14.785 314.062 23.892C314.89 26.055 315.385 32.396 315.43 41.392L315.5 55.5L311.304 64C308.649 69.379 305.143 74.52 301.757 78C296.621 83.279 288.111 90 286.564 90C286.157 90 282.826 91.388 279.162 93.084C275.498 94.78 268.9 97.506 264.5 99.142C260.1 100.778 254.7 102.811 252.5 103.659C250.3 104.508 243.775 106.918 238 109.015C232.225 111.111 224.363 113.966 220.529 115.359C216.694 116.751 213.369 117.702 213.138 117.472C212.908 117.241 214.92 113.378 217.61 108.887C220.957 103.298 226.392 96.742 234.833 88.111C246.339 76.346 247.132 75.285 246.653 72.294C246.182 69.353 246.796 68.449 254.07 61.37C262.122 53.535 263.786 50.099 260.437 48.224C259.166 47.514 259.664 46.801 263.093 44.425C269.366 40.077 272.196 38.233 275.25 36.505C276.762 35.649 278 34.51 278 33.974C278 33.438 278.498 33 279.106 33C279.714 33 281.988 31.593 284.159 29.874C286.914 27.692 288.015 26.106 287.803 24.624C287.543 22.804 286.855 22.511 283 22.576C280.525 22.618 276.475 23.581 274 24.715C271.525 25.85 265.225 28.229 260 30.002C254.775 31.775 250.05 33.578 249.5 34.009C248.95 34.44 246.925 35.249 245 35.807C243.075 36.365 237 38.469 231.5 40.482C226 42.496 217.702 45.491 213.06 47.138C208.418 48.785 203.803 50.57 202.804 51.105C201.805 51.639 195.478 54.028 188.744 56.412C182.01 58.797 171.1 62.663 164.5 65.004C157.9 67.345 152.05 69.591 151.5 69.996C150.95 70.401 146 72.203 140.5 74C135 75.797 130.05 77.587 129.5 77.977C128.95 78.367 123.55 80.365 117.5 82.416C111.45 84.467 105.085 86.786 103.357 87.569C100.343 88.934 87.676 93.507 83.5 94.737C78.227 96.291 67.394 102.882 64.772 106.132C63.063 108.25 61.614 111.458 61.296 113.827C60.761 117.818 60.557 117.999 49.741 124.056C40.322 129.331 32.64 134.521 24.667 141C21.619 143.477 11.662 153.55 9.22098 156.627L6.94198 159.5L7.35998 146C7.94998 126.96 11.46 117.818 22.205 107.334C30.87 98.879 35.946 96.533 75.5 82.697C82.1 80.389 87.65 78.162 87.833 77.75C88.017 77.338 88.639 77 89.217 77C90.434 77 109.055 70.495 113.5 68.517C115.15 67.783 120.1 65.983 124.5 64.517C128.9 63.051 133.85 61.266 135.5 60.552C137.15 59.837 142.55 57.796 147.5 56.016C152.45 54.236 157.4 52.416 158.5 51.972C159.6 51.527 163.875 49.942 168 48.45C179.939 44.13 193.884 38.992 202 35.922C206.125 34.362 214.45 31.329 220.5 29.183C243.526 21.012 246.548 19.898 248.236 18.962C249.191 18.433 250.473 18 251.085 18C251.697 18 253.745 17.266 255.636 16.368C257.527 15.471 265.02 12.795 272.287 10.422C282.991 6.92601 286.943 6.09701 293.1 6.05301C300.003 6.00501 301.08 6.27601 304.847 9.00401ZM94.5 109C94.16 109.55 93.415 110 92.845 110C92.275 110 90.614 110.815 89.154 111.812C85.659 114.198 79.163 116.073 78.441 114.904C77.879 113.994 79.191 113.35 88.5 109.964C94.417 107.813 95.324 107.667 94.5 109ZM55 155.488C51.425 156.202 46.925 157.472 45 158.309C43.075 159.145 39.025 160.826 36 162.044C29.819 164.531 15.815 172.731 9.45198 177.589C7.14098 179.352 4.23198 181.341 2.98598 182.007L0.721985 183.219L1.37398 217.359C1.73198 236.137 2.28698 282.857 2.60798 321.182C3.52998 431.533 4.35298 462.499 6.52498 468.5C9.20698 475.913 12.86 480.876 17.43 483.317C25.477 487.614 40.931 485.769 57.5 478.532C59.15 477.811 63.875 476.067 68 474.655C72.125 473.243 82.25 469.546 90.5 466.439C98.75 463.333 110.9 458.86 117.5 456.501C146.289 446.209 152.616 443.899 154.5 442.997C155.6 442.469 160.325 440.671 165 439C169.675 437.329 174.4 435.553 175.5 435.053C176.6 434.553 182.225 432.527 188 430.552C193.775 428.576 199.4 426.528 200.5 426C201.6 425.472 207.225 423.424 213 421.448C218.775 419.473 224.4 417.443 225.5 416.937C226.6 416.431 232 414.421 237.5 412.469C243 410.517 248.85 408.328 250.5 407.605C252.15 406.882 257.775 404.806 263 402.991C268.225 401.177 272.928 399.311 273.45 398.846C273.972 398.381 275.035 398 275.811 398C277.74 398 295.139 390.996 297 389.471C297.825 388.794 300.075 387.454 302 386.492C306.079 384.454 315.262 377.095 319.319 372.614C323.277 368.242 328.371 359.364 330.606 352.943C332.358 347.907 332.487 344.431 332.32 306.5C332.115 259.825 330.275 198.918 329.032 197.649C328.254 196.855 314.717 200.458 312.5 202.049C311.95 202.443 306.775 204.42 301 206.44C295.225 208.461 289.6 210.531 288.5 211.041C287.4 211.551 282.45 213.354 277.5 215.047C272.55 216.741 267.15 218.738 265.5 219.487C263.85 220.235 257.879 222.436 252.231 224.377C246.583 226.318 241.461 228.215 240.85 228.593C240.239 228.97 234.285 231.205 227.619 233.559C207.434 240.686 195.658 245.01 192.5 246.454C190.85 247.208 187.025 248.601 184 249.55C180.975 250.499 175.238 252.606 171.25 254.231L164 257.187V262.447C164 271.92 165.22 280.147 166.709 280.718C167.962 281.199 182.347 277.251 187.5 275.012C188.6 274.534 193.379 273.158 198.12 271.954C208.454 269.331 211.312 270.124 214.5 276.5C216.368 280.236 216.518 282.806 216.771 315.5C217.056 352.482 216.363 362.256 212.767 371.928C210.32 378.51 203.887 387.22 197.254 392.931C191.512 397.875 177.907 404.668 165 409.034C159.775 410.801 154.15 412.818 152.5 413.514C146.047 416.239 132.925 420.876 131.349 420.989C130.802 421.028 129.882 393.422 129.483 365C128.483 293.79 127.123 241.088 126.037 231.5C124.237 215.601 118.745 195.223 113.306 184.265C101.271 160.017 81.4 150.209 55 155.488ZM82.5 162.422C93.309 166.967 103.349 177.066 107.926 188C109.193 191.025 110.662 194.037 111.19 194.694C113.097 197.061 117.04 213.869 119.414 229.742C121.607 244.409 122.091 253.926 122.483 290C122.677 307.875 123.299 342.75 123.864 367.5C124.43 392.25 124.917 415.988 124.946 420.25L125 428H128.019C129.679 428 134.067 426.904 137.769 425.565C141.471 424.226 149.675 421.284 156 419.027C162.325 416.77 168.85 414.319 170.5 413.58C172.15 412.841 175.3 411.671 177.5 410.981C191.245 406.667 204.71 397.125 211.93 386.583C221.513 372.591 221.949 369.712 222.033 319.861C222.097 282.139 221.939 277.93 220.288 273.485C216.603 263.56 208.182 262.313 187 268.555C168.158 274.107 170 274.25 170 267.238V261.242L184.25 256.039C192.088 253.177 202.1 249.492 206.5 247.85C226.436 240.409 234.402 237.479 247 232.953C254.425 230.286 267.25 225.574 275.5 222.482C283.75 219.391 294.1 215.571 298.5 213.994C302.9 212.417 310.303 209.748 314.952 208.063C319.601 206.378 323.703 205 324.069 205C324.434 205 325.033 219.512 325.4 237.25C325.766 254.988 326.527 284.131 327.091 302.013C328.237 338.379 327.647 344.717 322.02 356.5C314.767 371.689 298.409 383.565 271.852 392.922C265.609 395.121 256 398.504 250.5 400.439C245 402.374 239.767 404.386 238.87 404.912C237.974 405.437 231.899 407.746 225.37 410.044C218.842 412.341 209.225 415.781 204 417.687C198.775 419.594 193.375 421.411 192 421.726C190.625 422.041 189.275 422.629 189 423.033C188.725 423.438 184 425.359 178.5 427.303C173 429.247 166.7 431.517 164.5 432.348C162.3 433.18 156 435.505 150.5 437.516C145 439.528 135.55 442.988 129.5 445.206C123.45 447.423 113.55 450.99 107.5 453.132C101.45 455.274 95.6 457.41 94.5 457.879C89.283 460.104 87.035 460.965 81 463.048C77.425 464.283 73.15 465.861 71.5 466.556C66.375 468.715 42.76 477.043 37.5 478.547C27.966 481.272 21.591 479.867 16.605 473.942C13.322 470.041 12.178 467.322 10.947 460.5C9.95898 455.029 9.67398 438.398 7.99398 288.682L6.86398 187.864L9.18198 185.648C16.534 178.622 41.412 165.528 54 162.06C62.973 159.587 76.156 159.755 82.5 162.422Z" fill="#FFFCF3"/>
</svg>
